!!!SOCIAL_FUNCTION:	memorial ceremony songs
!!!PDT:	1932
!!!OTL: No_22_Memorial_Ceremony_Song_(c).krn
!!!REG: Southwest
!!!LANG: Non-Tone
!!!LING_GROUP: Yuman-Cochimi
**kern
*staff1
=1-
*clefF4
*k[b-e-a-d-g-]
*M2/4
8F\L
8F\J
4F\
=2
8F\L
8F\J
4F\
=3
8F\L
8F\J
4F\
=4
8F\L
8F\J
8D-\
8r
=5
4r
8r
8A-\
=6
8F\L
8F\J
4F\
=7
8F\L
8F\J
4F\
=8
8F\L
8F\J
8F\
8r
=9
4r
8r
8A-\
=10
8F\L
8F\J
4F\
=11
8F\L
8F\J
4F\
=12
8F\L
8F\J
8F\
8r
=13||
4r
8r
8A-\
=14
8F\L
8F\J
4F\
=15
4A-\
8A-\L
8B-\J
=16
4A-\
8A-\L
8B-\J
=17
8A-\L
8A-\J
8F\
8r
=18
4r
8r
8A-\
=19
4A-\
8A-\L
8B-\J
=20
8F\L
8F\J
4F\
=21
8F\L
8F\J
4F\
=22
4F\
8F\L
8A-\J
=23
4F\
4F\
=24
8F\L
8F\J
8F\
8r
=25
4r
8r
8A-\
=26
8F\L
8F\J
4F\
=27
8F\L
8F\J
4F\
=28
8F\L
8F\J
8F\
8r
=29
4r
8r
8A-\
=30
8F\L
8F\J
4F\
=31
4F\
8F\L
8A-\J
=32
8F\L
8F\J
4F\
=33
8F\L
8F\J
8D-\
8r
=34
4r
8r
8A-\
=35
8F\L
8F\J
4F\
=36
8F\L
8F\J
4F\
=37
8F\L
8F\J
8F\
8r
=38
4r
8r
8A-\
=39
8F\L
8F\J
4F\
=40
8F\L
8F\J
4F\
=41
8F\L
8F\J
8F\
8r
==
*-
